src/assets/icons/angular-2.svg

<?xml version="1.0" encoding="utf-8"?><!-- Uploaded to: SVG Repo, www.svgrepo.com, Generator: SVG Repo Mixer Tools -->
<svg width="800px" height="800px" viewBox="0 0 24 24" fill="none" xmlns="http://www.w3.org/2000/svg">
<path d="M10.1739 12.594H13.8259L11.9999 8.095L10.1739 12.594Z" fill="#ff97ad"/>
<path d="M12 1L2 4.652L3.52524 18.193L12 23L20.4748 18.193L22 4.652L12 1ZM18.2406 17.786H15.9098L14.6531 14.574H9.34694L8.09022 17.786H5.7594L12 3.431L18.2406 17.786Z" fill="#ff97ad"/>
</svg>

<svg width="800" height="800" viewBox="0 0 24 24" fill="none" xmlns="http://www.w3.org/2000/svg"><path d="M10.174 12.594h3.652L12 8.095l-1.826 4.499Z" fill="#ff97ad"/><path d="M12 1 2 4.652l1.525 13.541L12 23l8.475-4.807L22 4.652 12 1Zm6.24 16.786h-2.33l-1.257-3.212H9.347L8.09 17.786H5.76L12 3.431l6.24 14.355Z" fill="#ff97ad"/></svg>
